X:1
T:Palm Beach, 87.87 D
T:Palm Beach, 87.87 D
T:J. L. Moore, 1893
T:Public Domain Courtesy of the Cyber Hymnal™
C:J. L. Moore, 1893
Z:Public Domain
Z:Courtesy of the Cyber Hymnal™
%%score 1 ( 2 3 )
L:1/8
Q:1/4=97
M:4/4
K:G
V:1 treble 
V:2 bass 
V:3 bass 
V:1
 [DB]>[Dd] [DG]>[DB] [CE]2 [CG]2 | [B,D]4 [DG]2 z2 | [DA]>[DG] [CF]>[B,G] [DA]2 [DB]2 | [DA]6 z2 | %4
 [DB]>[Dd] [DG]>[DB] [CE]2 [CG]2 | [B,D]4 [DG]2 z2 | [DF]>[B,G] [CA]>[B,G] [DB]2 [CA]2 | %7
 [B,G]6 z2 | [Ec]>[Ec] [Ec]>[Ec] [Ge]2 [Ec]2 | [DB]4 [Dd]2 z2 | [Dd]>[DB] [Dc]>[DA] [DG]2 [DB]2 | %11
 [DA]6 z2 | [DB]>[Dd] [DG]>[DB] [CE]2 [CG]2 | [B,D]4 [DG]2 z2 | [DF]>[B,G] [CA]>[B,G] [DB]2 [DA]2 | %15
 [DG]6 z2 |] %16
V:2
 [G,,G,]>[G,,B,] [G,,B,]>[G,,G,] [C,G,]2 [E,G,]2 | G,4 [G,B,]2 z2 | %2
 [D,C]>[D,B,] [D,A,]>[D,G,] [D,F,]2 [D,G,]2 | [D,F,]6 z2 | %4
 [G,,G,]>[G,,B,] [G,,B,]>[G,,G,] [C,G,]2 [E,G,]2 | G,4 [G,B,]2 z2 | %6
 [D,A,]>[D,G,] [D,F,]>[D,G,] [D,G,]2 [D,F,]2 | [G,,G,]6 z2 | %8
 [C,G,]>[C,G,] [C,G,]>[C,G,] [C,G,]2 [C,G,]2 | G,4 [G,B,]2 z2 | %10
 [G,B,]>G, [D,A,]>[C,F,] [B,,G,]2 [G,,G,]2 | [D,F,]6 z2 | %12
 [G,,G,]>[G,,B,] [G,,B,]>[G,,G,] [C,G,]2 [E,G,]2 | G,4 [G,B,]2 z2 | %14
 [D,A,]>[D,G,] [D,F,]>[D,G,] [D,G,]2 [D,C]2 | [G,,B,]6 z2 |] %16
V:3
 x8 | G,4 x4 | x8 | x8 | x8 | G,4 x4 | x8 | x8 | x8 | G,4 x4 | x3/2 G,/ x6 | x8 | x8 | G,4 x4 | %14
 x8 | x8 |] %16

